X: 238
T: 239. Den Veter dort oben
N: Derived from chor239.krn
C: Johann Sebastian Bach
%%abc-version 2.0
%%abcx-abcm2ps-target-version 5.9.1 (29 Sep 2008)
%%abc-creator hum2abc beta
%%abcx-conversion-date 2019/03/11 17:28:19
%%abc-edited-by Craig Stuart Sapp
%%humdrum-veritas 1754253077
%%humdrum-veritas-data 227182065
%%
%%barnumbers 0
L: 1/8
M: C
%%staves [1 2 3 4]
V: 1 clef=treble
V: 2 clef=treble
V: 3 clef=treble-8
V: 4 clef=bass
K: C
[V:1] G2G2A2B2 | 
[V:2] E2D2E^FG2 | 
[V:3] c2G2c2d2 | 
[V:4] C,3B,,A,,2G,,=F,, | 
[V:1] c4!fermata!c4 | 
[V:2] G2=F2-F2!fermata!E2 | 
[V:3] c_BA2!fermata!G4 | 
[V:4] E,,2F,,2!fermata!C,,4 | 
[V:1] e2d2c2B2 | 
[V:2] G2^FG/F/ EA DC/D/ | 
[V:3] c=B AB/A/ G^FG2- | 
[V:4] C,3B,,- B,,A,, G,,A,,/B,,/ | 
[V:1] A4!fermata!G4 | 
[V:2] EC A,D/C/!fermata!B,4 | 
[V:3] G3^F!fermata!D4 | 
[V:4] C,A,,D,2!fermata!G,,4 | 
[V:1] G2G2A2B2 | 
[V:2] E2E2E^FG2 | 
[V:3] B2B2c2d2 | 
[V:4] E,,E,2D,C,2B,,2 | 
[V:1] c2G2!fermata!G4 | 
[V:2] G=F- FE/D/!fermata!E4 | 
[V:3] c2dG!fermata!c4 | 
[V:4] A,,2B,,2!fermata!C,4 | 
[V:1] A2G2F2E2 | 
[V:2] FE DE/D/ CB,C2- | 
[V:3] c2Bc/B/ Ad GF/G/ | 
[V:4] F,3E,- E,D, C,D,/E,/ | 
[V:1] D2D2!fermata!C4 | 
[V:2] C2CB,!fermata!G,4 | 
[V:3] AF DG/F/!fermata!E4 | 
[V:4] F,D, G,G,,!fermata!C,4 | 
[V:1] c2d2c2B2 | 
[V:2] G2G2-G^FG2- | 
[V:3] e2d2GA Bc/d/ | 
[V:4] C,3B,,E,2D,2 | 
[V:1] A4!fermata!G4 | 
[V:2] G2^F2!fermata!G4 | 
[V:3] ec Ad/c/!fermata!B4 | 
[V:4] C,2D,2!fermata!G,,4 | 
[V:1] G2G2A2B2 | 
[V:2] E=FG2-GF/E/F2 | 
[V:3] c2c2c2d2 | 
[V:4] C,D,E,2F,E,D,2 | 
[V:1] c2G2!fermata!G4 | 
[V:2] FED2!fermata!C4 | 
[V:3] G2G3/F/!fermata!E4 | 
[V:4] C,3B,,!fermata!C,4 | 
[V:1] A2G2F2E2 | 
[V:2] CF2E- EDC2- | 
[V:3] F2Gc/_B/A2A2 | 
[V:4] F,2C,2D,2A,,G,, | 
[V:1] D4!fermata!C4 |]  
[V:2] C=B,/A,/B,2!fermata!G,4 |]  
[V:3] AD DG/F/!fermata!E4 |]  
[V:4] F,,2G,,2!fermata!C,,4 |]  



